X:1
T:James MacDonald
M:6/8
L:1/8
K:Bb
 F2- D| B,2 B, B,2 D| F2 F D2 B,| C2 C B,2 A,| B,3 z2 B| c2 cF-A c|\
 B3/2 B3/2B,-D F| B2 AG-F D| C3 z2 B| c2 cF-A c| B2 BB,-D F| B2 AG-F D|\
 C3 z2 B,/2B,/2| B,2 D FFd| B B3 z D|F-E C B,2 A,| B,3||
